X:1
T: Dunse Dings
T: Mr. Sharpe's Favourite
C:
R:Reel
Q: 232
K:A
M:4/4
L:1/8
|:ce eg ae cA|ce eg a3e|ce eg ae cA|B=G GB =g3d|
ce eg ae cA|ce eg a3e|ce eg ae cA|B=G GB =g3d|
cA eA fA eA|cA eg a3e|cA eA fA eA|B=G GB =g3d|
cA eA fA eA|cA eg a3e|cA eA fA eA|B=G GB =gd BG:|
